assets/icons/qvision/no_photography.svg

<svg width="24" height="24" viewBox="0 0 24 24" fill="none" xmlns="http://www.w3.org/2000/svg">
<g clip-path="url(#clip0_147_6254)">
<path d="M10.9402 8.12L7.48018 4.66L9.00018 3H15.0002L16.8302 5H20.0002C21.1002 5 22.0002 5.9 22.0002 7V19C22.0002 19.05 21.9902 19.1 21.9802 19.16L16.8802 14.06C16.9602 13.71 17.0002 13.36 17.0002 13C17.0002 10.24 14.7602 8 12.0002 8C11.6402 8 11.2902 8.04 10.9402 8.12ZM20.4902 23.31L18.1702 21H4.00018C2.90018 21 2.00018 20.1 2.00018 19V7C2.00018 6.41 2.27018 5.88 2.68018 5.51L0.680176 3.51L2.10018 2.1L21.9002 21.9L20.4902 23.31ZM14.4902 17.32L12.9902 15.82C12.6702 15.92 12.3502 16 12.0002 16C10.3402 16 9.00018 14.66 9.00018 13C9.00018 12.65 9.08018 12.33 9.19018 12.02L7.69018 10.52C7.25018 11.24 7.00018 12.09 7.00018 13C7.00018 15.76 9.24018 18 12.0002 18C12.9102 18 13.7602 17.75 14.4902 17.32Z" fill="#323232"/>
</g>
<defs>
<clipPath id="clip0_147_6254">
<rect width="24" height="24" fill="white"/>
</clipPath>
</defs>
</svg>

<svg xmlns="http://www.w3.org/2000/svg" enable-background="new 0 0 24 24" height="24" viewBox="0 0 24 24" width="24"><g><rect fill="none" height="24" width="24"/><path d="M10.94,8.12L7.48,4.66L9,3h6l1.83,2H20c1.1,0,2,0.9,2,2v12c0,0.05-0.01,0.1-0.02,0.16l-5.1-5.1C16.96,13.71,17,13.36,17,13 c0-2.76-2.24-5-5-5C11.64,8,11.29,8.04,10.94,8.12z M20.49,23.31L18.17,21H4c-1.1,0-2-0.9-2-2V7c0-0.59,0.27-1.12,0.68-1.49l-2-2 L2.1,2.1l19.8,19.8L20.49,23.31z M14.49,17.32l-1.5-1.5C12.67,15.92,12.35,16,12,16c-1.66,0-3-1.34-3-3c0-0.35,0.08-0.67,0.19-0.98 l-1.5-1.5C7.25,11.24,7,12.09,7,13c0,2.76,2.24,5,5,5C12.91,18,13.76,17.75,14.49,17.32z"/></g></svg>
